X:258
T:Lochaber No More
B:Kerr's Merry Melodies Bk.3, p47
Z:Nigel Gatherer
M:3/4
L:1/8
K:G
GA|B2 B2 Bc|B2 A2 Bd|e2 A2 AB|B2 A2 GA|BdcBAG|E2 D2 GA|
B2 G2 GA|G4::GA|B2 B2 Bc|d2 cBAB|G2 g2 ga|a2 g2 GA|
B2 B2 Bc|d2 cBAB|G2 g2 ga|g4 de|=f2 f2 ed|e4 EG|
A2 A2 (3GAB|B2 A2 GA|BdcBAG|E2 D2 GA|B2 G2 GA|G4:|
<end>
<start>
